; generated by Slic3r 1.0.1 on 2014-07-14 at 13:38:14

; layer_height = .21
; perimeters = 1
; top_solid_layers = 0
; bottom_solid_layers = 0
; fill_density = 0
; perimeter_speed = 60
; infill_speed = 60
; travel_speed = 150
; nozzle_diameter = 0.35
; filament_diameter = 3
; extrusion_multiplier = 1
; perimeters extrusion width = 0.35mm
; infill extrusion width = 0.49mm
; solid infill extrusion width = 0.20mm
; top infill extrusion width = 0.49mm
; first layer extrusion width = 0.50mm

G21 ; set units to millimeters
M104 S235 ; set temperature
G28 ; home all axes
M140 S100
G1 X190.400 Y24.000 Z0.20 F9000.000;(Extruder Prime Dry Move)
G1 X10 Y24 Z0.20 F1800.000 E10.000;(Extruder Prime StErt) 
G90 ; use absolute coordinates
G92 E0
M82 ; use absolute distances for extrusion
G1 F900.000 E-1.10000
G92 E0
G1 Z0.250 F9000.000
G1 X77.907 Y68.147 F9000.000
G1 E1.10000 F900.000
G1 X84.284 Y62.775 E1.23796 F1080.000
G1 X84.900 Y63.506 E1.25377
G1 X81.500 Y66.369 E1.32731
G1 X82.135 Y67.123 E1.34361
G1 X85.534 Y64.259 E1.41716
G1 X86.150 Y64.990 E1.43296
G1 X82.750 Y67.853 E1.50651
G1 X83.385 Y68.607 E1.52281
G1 X86.784 Y65.743 E1.59635
G1 X87.400 Y66.474 E1.61216
G1 X84.000 Y69.337 E1.68570
G1 X84.635 Y70.091 E1.70200
G1 X88.034 Y67.227 E1.77554
G1 X88.650 Y67.958 E1.79135
G1 X85.250 Y70.821 E1.86489
G1 X85.885 Y71.575 E1.88119
G1 X89.284 Y68.711 E1.95474
G1 X89.900 Y69.442 E1.97054
G1 X86.500 Y72.305 E2.04409
G1 X87.135 Y73.059 E2.06039
G1 X90.534 Y70.195 E2.13393
G1 X91.150 Y70.926 E2.14974
G1 X87.750 Y73.790 E2.22328
G1 X88.385 Y74.543 E2.23958
G1 X91.784 Y71.679 E2.31312
G1 X92.400 Y72.410 E2.32893
G1 X89.000 Y75.274 E2.40247
G1 X89.635 Y76.027 E2.41877
G1 X93.034 Y73.164 E2.49232
G1 X93.650 Y73.894 E2.50812
G1 X90.250 Y76.758 E2.58167
G1 X90.885 Y77.511 E2.59797
G1 X94.285 Y74.648 E2.67151
G1 X94.900 Y75.378 E2.68732
G1 X91.500 Y78.242 E2.76086
G1 X92.135 Y78.995 E2.77716
G1 X95.535 Y76.132 E2.85070
G1 X96.150 Y76.862 E2.86651
G1 X92.750 Y79.726 E2.94005
G1 X93.385 Y80.479 E2.95635
G1 X96.785 Y77.616 E3.02990
G1 X97.400 Y78.347 E3.04570
G1 X94.000 Y81.210 E3.11925
G1 X94.635 Y81.964 E3.13554
G1 X98.035 Y79.100 E3.20909
G1 X98.650 Y79.831 E3.22490
G1 X95.250 Y82.694 E3.29844
G1 X95.885 Y83.448 E3.31474
G1 X99.285 Y80.584 E3.38828
G1 X99.900 Y81.315 E3.40409
G1 X96.500 Y84.178 E3.47763
G1 X97.135 Y84.932 E3.49393
G1 X100.535 Y82.068 E3.56748
G1 X101.150 Y82.799 E3.58328
G1 X97.750 Y85.662 E3.65683
G1 X98.385 Y86.416 E3.67313
G1 X101.785 Y83.552 E3.74667
G1 X102.400 Y84.283 E3.76248
G1 X99.000 Y87.146 E3.83602
G1 X99.635 Y87.900 E3.85232
G1 X103.035 Y85.036 E3.92586
G1 X103.650 Y85.767 E3.94167
G1 X100.250 Y88.631 E4.01521
G1 X100.885 Y89.384 E4.03151
G1 X104.285 Y86.520 E4.10506
G1 X104.900 Y87.251 E4.12086
G1 X101.501 Y90.115 E4.19441
G1 X102.135 Y90.868 E4.21071
G1 X105.535 Y88.005 E4.28425
G1 X106.150 Y88.735 E4.30006
G1 X102.751 Y91.599 E4.37360
G1 X103.385 Y92.352 E4.38990
G1 X106.785 Y89.489 E4.46344
G1 X107.400 Y90.219 E4.47925
G1 X104.001 Y93.083 E4.55279
G1 X104.635 Y93.836 E4.56909
G1 X108.035 Y90.973 E4.64264
G1 X108.650 Y91.703 E4.65844
G1 X105.251 Y94.567 E4.73199
G1 X105.885 Y95.320 E4.74829
G1 X109.285 Y92.457 E4.82183
G1 X109.900 Y93.188 E4.83764
G1 X106.501 Y96.051 E4.91118
G1 X107.135 Y96.805 E4.92748
G1 X110.535 Y93.941 E5.00102
G1 X111.150 Y94.672 E5.01683
G1 X107.751 Y97.535 E5.09037
G1 X108.385 Y98.289 E5.10667
G1 X111.785 Y95.425 E5.18022
G1 X112.400 Y96.156 E5.19602
G1 X109.001 Y99.019 E5.26957
G1 X109.635 Y99.773 E5.28586
G1 X113.035 Y96.909 E5.35941
G1 X113.651 Y97.640 E5.37521
G1 X110.251 Y100.503 E5.44876
G1 X110.885 Y101.257 E5.46506
G1 X114.285 Y98.393 E5.53860
G1 X114.901 Y99.124 E5.55441
G1 X111.501 Y101.987 E5.62795
G1 X112.135 Y102.741 E5.64425
G1 X115.535 Y99.877 E5.71780
G1 X116.151 Y100.608 E5.73360
G1 X112.751 Y103.472 E5.80715
G1 X113.386 Y104.225 E5.82344
G1 X116.785 Y101.361 E5.89699
G1 X117.401 Y102.092 E5.91279
G1 X114.001 Y104.956 E5.98634
G1 X114.636 Y105.709 E6.00264
G1 X118.035 Y102.846 E6.07618
G1 X118.651 Y103.576 E6.09199
G1 X115.251 Y106.440 E6.16553
G1 X115.886 Y107.193 E6.18183
G1 X119.285 Y104.330 E6.25538
G1 X119.901 Y105.060 E6.27118
G1 X116.501 Y107.924 E6.34473
G1 X117.136 Y108.677 E6.36102
G1 X120.535 Y105.814 E6.43457
G1 X121.151 Y106.544 E6.45037
G1 X117.751 Y109.408 E6.52392
G1 X118.386 Y110.161 E6.54022
G1 X121.785 Y107.298 E6.61376
G1 X122.401 Y108.029 E6.62957
G1 X119.001 Y110.892 E6.70311
G1 X119.636 Y111.646 E6.71941
G1 X123.035 Y108.782 E6.79295
G1 X123.651 Y109.513 E6.80876
G1 X120.251 Y112.376 E6.88231
G1 X120.886 Y113.130 E6.89860
G1 X124.285 Y110.266 E6.97215
G1 X124.901 Y110.997 E6.98795
G1 X121.501 Y113.860 E7.06150
G1 X122.136 Y114.614 E7.07780
G1 X125.536 Y111.750 E7.15134
G1 X126.151 Y112.481 E7.16715
G1 X122.751 Y115.344 E7.24069
G1 X123.386 Y116.098 E7.25699
G1 X126.786 Y113.234 E7.33053
G1 X127.401 Y113.965 E7.34634
G1 X124.001 Y116.828 E7.41989
G1 X124.636 Y117.582 E7.43618
G1 X128.036 Y114.718 E7.50973
G1 X128.651 Y115.449 E7.52553
G1 X125.251 Y118.313 E7.59908
G1 X125.886 Y119.066 E7.61538
G1 X129.286 Y116.202 E7.68892
G1 X129.901 Y116.933 E7.70473
G1 X126.501 Y119.797 E7.77827
G1 X127.136 Y120.550 E7.79457
G1 X130.536 Y117.687 E7.86812
G1 X131.151 Y118.417 E7.88392
G1 X127.751 Y121.281 E7.95747
G1 X128.386 Y122.034 E7.97376
G1 X131.786 Y119.171 E8.04731
G1 X132.401 Y119.901 E8.06311
G1 X129.001 Y122.765 E8.13666
G1 X129.636 Y123.518 E8.15296
G1 X133.036 Y120.655 E8.22650
G1 X133.651 Y121.385 E8.24231
G1 X130.251 Y124.249 E8.31585
G1 X130.886 Y125.002 E8.33215
G1 X134.286 Y122.139 E8.40570
G1 X134.901 Y122.870 E8.42150
G1 X131.501 Y125.733 E8.49505
G1 X132.136 Y126.487 E8.51134
G1 X135.536 Y123.623 E8.58489
G1 X136.151 Y124.354 E8.60069
G1 X132.752 Y127.217 E8.67424
G1 X133.386 Y127.971 E8.69054
G1 X136.786 Y125.107 E8.76408
G1 X137.401 Y125.838 E8.77989
G1 X134.002 Y128.701 E8.85343
G1 X134.636 Y129.455 E8.86973
G1 X138.036 Y126.591 E8.94328
G1 X138.651 Y127.322 E8.95908
G1 X135.252 Y130.185 E9.03263
G1 X135.886 Y130.939 E9.04892
G1 X139.286 Y128.075 E9.12247
G1 X139.901 Y128.806 E9.13827
G1 X136.502 Y131.669 E9.21182
G1 X137.136 Y132.423 E9.22812
G1 X140.536 Y129.559 E9.30166
G1 X141.151 Y130.290 E9.31747
G1 X137.752 Y133.154 E9.39101
G1 X138.386 Y133.907 E9.40731
G1 X141.786 Y131.043 E9.48086
G1 X142.401 Y131.774 E9.49666
G1 X139.002 Y134.638 E9.57021
G1 X139.636 Y135.391 E9.58650
G1 X143.036 Y132.528 E9.66005
G1 X143.652 Y133.258 E9.67585
G1 X140.252 Y136.122 E9.74940
G1 X140.886 Y136.875 E9.76570
G1 X144.286 Y134.012 E9.83924
G1 X144.902 Y134.742 E9.85505
G1 X141.502 Y137.606 E9.92859
G1 X142.136 Y138.359 E9.94489
G1 X145.536 Y135.496 E10.01844
G1 X146.152 Y136.226 E10.03424
G1 X142.752 Y139.090 E10.10779
G1 X143.386 Y139.843 E10.12408
G1 X146.786 Y136.980 E10.19763
G1 X147.538 Y137.872 E10.21694
G1 X147.209 Y137.872 E10.22237
G1 X144.002 Y140.574 E10.29176
G1 X144.637 Y141.328 E10.30806
G1 X148.036 Y138.464 E10.38160
G1 X148.652 Y139.195 E10.39741
G1 X145.252 Y142.058 E10.47095
G1 X145.887 Y142.812 E10.48725
G1 X149.286 Y139.948 E10.56080
G1 X149.902 Y140.679 E10.57660
G1 X146.502 Y143.542 E10.65015
G1 X147.137 Y144.296 E10.66645
G1 X150.536 Y141.432 E10.73999
G1 X151.152 Y142.163 E10.75580
G1 X147.752 Y145.026 E10.82934
G1 X148.387 Y145.780 E10.84564
G1 X151.786 Y142.916 E10.91918
G1 X152.402 Y143.647 E10.93499
G1 X149.002 Y146.510 E11.00853
G1 X149.637 Y147.264 E11.02483
G1 X153.036 Y144.400 E11.09838
G1 X153.652 Y145.131 E11.11418
G1 X150.252 Y147.995 E11.18773
G1 X150.887 Y148.748 E11.20403
G1 X154.286 Y145.884 E11.27757
G1 X154.902 Y146.615 E11.29338
G1 X151.502 Y149.479 E11.36692
G1 X152.137 Y150.232 E11.38322
G1 X155.536 Y147.369 E11.45676
G1 X156.288 Y148.261 E11.47607
G1 X155.960 Y148.261 E11.48151
G1 X152.752 Y150.963 E11.55089
G1 X153.387 Y151.716 E11.56719
G1 X156.787 Y148.853 E11.64074
G1 X157.402 Y149.583 E11.65654
G1 X154.002 Y152.447 E11.73009
G1 X154.637 Y153.200 E11.74639
G1 X158.037 Y150.337 E11.81993
G1 X158.652 Y151.067 E11.83574
G1 X152.274 Y156.439 E11.97370
G1 X77.952 Y68.200 E13.88252
G1 F900.000 E12.78252
G92 E0
G1 Z0.460 F9000.000
G1 X77.801 Y68.138 F9000.000
G1 E1.10000 F900.000
G1 X84.466 Y62.524 E1.19061 F2160
G1 X85.178 Y63.369 E1.20210
G1 X81.433 Y66.523 E1.25301
G1 X81.971 Y67.162 E1.26170
G1 X85.716 Y64.008 E1.31261
G1 X86.428 Y64.853 E1.32410
G1 X82.683 Y68.008 E1.37501
G1 X83.221 Y68.646 E1.38369
G1 X86.966 Y65.492 E1.43460
G1 X87.678 Y66.337 E1.44610
G1 X83.933 Y69.492 E1.49701
G1 X84.471 Y70.130 E1.50569
G1 X88.216 Y66.976 E1.55660
G1 X88.928 Y67.822 E1.56809
G1 X85.183 Y70.976 E1.61900
G1 X85.370 Y71.197 E1.62202
G1 X85.721 Y71.614 E1.62768
G1 X89.466 Y68.460 E1.67859
G1 X90.178 Y69.306 E1.69009
G1 X86.433 Y72.460 E1.74100
G1 X86.971 Y73.099 E1.74968
G1 X90.716 Y69.944 E1.80059
G1 X91.428 Y70.790 E1.81208
G1 X87.683 Y73.944 E1.86299
G1 X88.221 Y74.583 E1.87168
G1 X91.966 Y71.428 E1.92259
G1 X92.678 Y72.274 E1.93408
G1 X88.933 Y75.428 E1.98499
G1 X89.471 Y76.067 E1.99367
G1 X93.216 Y72.913 E2.04458
G1 X93.928 Y73.758 E2.05608
G1 X90.183 Y76.912 E2.10699
G1 X90.721 Y77.551 E2.11567
G1 X94.466 Y74.397 E2.16658
G1 X95.178 Y75.242 E2.17807
G1 X91.433 Y78.396 E2.22898
G1 X91.971 Y79.035 E2.23767
G1 X95.716 Y75.881 E2.28858
G1 X96.428 Y76.726 E2.30007
G1 X92.683 Y79.880 E2.35098
G1 X93.221 Y80.519 E2.35966
G1 X96.966 Y77.365 E2.41057
G1 X97.678 Y78.210 E2.42207
G1 X93.933 Y81.364 E2.47298
G1 X94.471 Y82.003 E2.48166
G1 X98.216 Y78.849 E2.53257
G1 X98.928 Y79.694 E2.54406
G1 X95.183 Y82.849 E2.59497
G1 X95.721 Y83.487 E2.60366
G1 X99.466 Y80.333 E2.65457
G1 X100.178 Y81.178 E2.66606
G1 X96.434 Y84.333 E2.71697
G1 X96.972 Y84.971 E2.72565
G1 X100.716 Y81.817 E2.77656
G1 X101.428 Y82.663 E2.78806
G1 X97.684 Y85.817 E2.83897
G1 X98.222 Y86.455 E2.84765
G1 X101.966 Y83.301 E2.89856
G1 X102.678 Y84.147 E2.91005
G1 X98.934 Y87.301 E2.96096
G1 X99.120 Y87.523 E2.96398
G1 X99.472 Y87.940 E2.96964
G1 X103.216 Y84.785 E3.02055
G1 X103.928 Y85.631 E3.03205
G1 X100.184 Y88.785 E3.08296
G1 X100.722 Y89.424 E3.09164
G1 X104.466 Y86.270 E3.14255
G1 X105.178 Y87.115 E3.15404
G1 X101.434 Y90.269 E3.20495
G1 X101.972 Y90.908 E3.21364
G1 X105.716 Y87.754 E3.26455
G1 X106.428 Y88.599 E3.27604
G1 X102.684 Y91.753 E3.32695
G1 X102.870 Y91.975 E3.32996
G1 X103.222 Y92.392 E3.33563
G1 X106.966 Y89.238 E3.38654
G1 X107.679 Y90.083 E3.39804
G1 X103.934 Y93.237 E3.44895
G1 X104.472 Y93.876 E3.45763
G1 X108.216 Y90.722 E3.50854
G1 X108.929 Y91.567 E3.52003
G1 X105.184 Y94.721 E3.57094
G1 X105.722 Y95.360 E3.57963
G1 X109.467 Y92.206 E3.63054
G1 X110.179 Y93.051 E3.64203
G1 X106.434 Y96.205 E3.69294
G1 X106.972 Y96.844 E3.70162
G1 X110.717 Y93.690 E3.75253
G1 X111.429 Y94.535 E3.76403
G1 X107.684 Y97.690 E3.81494
G1 X108.222 Y98.328 E3.82362
G1 X111.967 Y95.174 E3.87453
G1 X112.679 Y96.019 E3.88602
G1 X108.934 Y99.174 E3.93693
G1 X109.472 Y99.812 E3.94562
G1 X113.217 Y96.658 E3.99653
G1 X113.929 Y97.504 E4.00802
G1 X110.184 Y100.658 E4.05893
G1 X110.722 Y101.296 E4.06761
G1 X114.467 Y98.142 E4.11852
G1 X115.179 Y98.988 E4.13001
G1 X111.434 Y102.142 E4.18092
G1 X111.972 Y102.781 E4.18961
G1 X115.717 Y99.626 E4.24052
G1 X116.429 Y100.472 E4.25201
G1 X112.684 Y103.626 E4.30292
G1 X113.222 Y104.265 E4.31160
G1 X116.967 Y101.111 E4.36251
G1 X117.679 Y101.956 E4.37401
G1 X113.934 Y105.110 E4.42492
G1 X114.472 Y105.749 E4.43360
G1 X118.217 Y102.595 E4.48451
G1 X118.929 Y103.440 E4.49600
G1 X115.184 Y106.594 E4.54691
G1 X115.371 Y106.816 E4.54993
G1 X115.722 Y107.233 E4.55560
G1 X119.467 Y104.079 E4.60651
G1 X120.179 Y104.924 E4.61800
G1 X116.434 Y108.078 E4.66891
G1 X116.972 Y108.717 E4.67759
G1 X120.717 Y105.563 E4.72850
G1 X121.429 Y106.408 E4.74000
G1 X117.684 Y109.562 E4.79091
G1 X118.222 Y110.201 E4.79959
G1 X121.967 Y107.047 E4.85050
G1 X122.679 Y107.892 E4.86199
G1 X118.934 Y111.046 E4.91290
G1 X119.121 Y111.268 E4.91592
G1 X119.472 Y111.685 E4.92159
G1 X123.217 Y108.531 E4.97250
G1 X123.929 Y109.376 E4.98399
G1 X120.184 Y112.531 E5.03490
G1 X120.722 Y113.169 E5.04358
G1 X124.467 Y110.015 E5.09449
G1 X125.179 Y110.860 E5.10599
G1 X121.434 Y114.015 E5.15690
G1 X121.972 Y114.653 E5.16558
G1 X125.717 Y111.499 E5.21649
G1 X126.429 Y112.345 E5.22798
G1 X122.684 Y115.499 E5.27889
G1 X123.222 Y116.137 E5.28758
G1 X126.967 Y112.983 E5.33849
G1 X127.679 Y113.829 E5.34998
G1 X123.934 Y116.983 E5.40089
G1 X124.472 Y117.622 E5.40957
G1 X128.217 Y114.467 E5.46048
G1 X128.929 Y115.313 E5.47197
G1 X125.184 Y118.467 E5.52288
G1 X125.722 Y119.106 E5.53157
G1 X129.467 Y115.952 E5.58248
G1 X130.179 Y116.797 E5.59397
G1 X126.435 Y119.951 E5.64488
G1 X126.972 Y120.590 E5.65356
G1 X130.717 Y117.436 E5.70447
G1 X131.429 Y118.281 E5.71597
G1 X127.685 Y121.435 E5.76688
G1 X128.223 Y122.074 E5.77556
G1 X131.967 Y118.920 E5.82647
G1 X132.679 Y119.765 E5.83796
G1 X128.935 Y122.919 E5.88887
G1 X129.473 Y123.558 E5.89756
G1 X133.217 Y120.404 E5.94847
G1 X133.929 Y121.249 E5.95996
G1 X130.185 Y124.403 E6.01087
G1 X130.371 Y124.625 E6.01388
G1 X130.723 Y125.042 E6.01955
G1 X134.467 Y121.888 E6.07046
G1 X135.179 Y122.733 E6.08196
G1 X131.435 Y125.887 E6.13287
G1 X131.973 Y126.526 E6.14155
G1 X135.717 Y123.372 E6.19246
G1 X136.429 Y124.217 E6.20395
G1 X132.685 Y127.372 E6.25486
G1 X133.223 Y128.010 E6.26355
G1 X136.967 Y124.856 E6.31446
G1 X137.679 Y125.701 E6.32595
G1 X133.935 Y128.856 E6.37686
G1 X134.473 Y129.494 E6.38554
G1 X138.217 Y126.340 E6.43645
G1 X138.930 Y127.186 E6.44795
G1 X135.185 Y130.340 E6.49886
G1 X135.723 Y130.978 E6.50754
G1 X139.468 Y127.824 E6.55845
G1 X140.180 Y128.670 E6.56994
G1 X136.435 Y131.824 E6.62085
G1 X136.973 Y132.463 E6.62954
G1 X140.718 Y129.308 E6.68045
G1 X141.430 Y130.154 E6.69194
G1 X137.685 Y133.308 E6.74285
G1 X138.223 Y133.947 E6.75153
G1 X141.968 Y130.793 E6.80244
G1 X142.680 Y131.638 E6.81394
G1 X138.935 Y134.792 E6.86485
G1 X139.473 Y135.431 E6.87353
G1 X143.218 Y132.277 E6.92444
G1 X143.930 Y133.122 E6.93593
G1 X140.185 Y136.276 E6.98684
G1 X140.723 Y136.915 E6.99553
G1 X144.468 Y133.761 E7.04643
G1 X145.180 Y134.606 E7.05793
G1 X141.435 Y137.760 E7.10884
G1 X141.973 Y138.399 E7.11752
G1 X145.718 Y135.245 E7.16843
G1 X146.430 Y136.090 E7.17992
G1 X142.685 Y139.244 E7.23083
G1 X143.223 Y139.883 E7.23952
G1 X146.968 Y136.729 E7.29043
G1 X147.680 Y137.574 E7.30192
G1 X143.935 Y140.728 E7.35283
G1 X144.473 Y141.367 E7.36151
G1 X148.218 Y138.213 E7.41242
G1 X148.930 Y139.058 E7.42392
G1 X145.185 Y142.213 E7.47483
G1 X145.723 Y142.851 E7.48351
G1 X149.468 Y139.697 E7.53442
G1 X150.180 Y140.542 E7.54591
G1 X146.435 Y143.697 E7.59682
G1 X146.973 Y144.335 E7.60551
G1 X150.718 Y141.181 E7.65642
G1 X151.430 Y142.027 E7.66791
G1 X147.685 Y145.181 E7.71882
G1 X147.872 Y145.402 E7.72183
G1 X148.223 Y145.819 E7.72750
G1 X151.968 Y142.665 E7.77841
G1 X152.680 Y143.511 E7.78991
G1 X148.935 Y146.665 E7.84082
G1 X149.473 Y147.304 E7.84950
G1 X153.218 Y144.149 E7.90041
G1 X153.930 Y144.995 E7.91190
G1 X150.185 Y148.149 E7.96281
G1 X150.723 Y148.788 E7.97150
G1 X154.468 Y145.634 E8.02241
G1 X155.180 Y146.479 E8.03390
G1 X151.435 Y149.633 E8.08481
G1 X151.973 Y150.272 E8.09349
G1 X155.718 Y147.118 E8.14440
G1 X156.430 Y147.963 E8.15590
G1 X152.685 Y151.117 E8.20680
G1 X152.872 Y151.339 E8.20982
G1 X153.223 Y151.756 E8.21549
G1 X156.968 Y148.602 E8.26640
G1 X157.680 Y149.447 E8.27789
G1 X153.935 Y152.601 E8.32880
G1 X154.473 Y153.240 E8.33748
G1 X158.218 Y150.086 E8.38839
G1 X158.930 Y150.931 E8.39989
G1 X152.265 Y156.545 E8.49050
G1 X77.835 Y68.178 E9.69186
G1 F900.000 E8.59186
G92 E0
